!!!SOCIAL_FUNCTION:	songs for little children
!!!PDT:	1939
!!!OTL: No_124_"My_Little_Son".krn
!!!LANG: Non-Tone
!!!LING_GROUP: Wakashan
!!!REG: Pacific Northwest
**kern
*staff1
=1-
*clefF4
*k[]
*M3/4
4r
8r
16r
16G\
8G\L
16G\L
16A\JJ
=2
4..c\
16d\
8.c\L
16c\Jk
=3
4c\
8c\
16r
16G\
8G\L
16A\L
16A\JJ
=4
4..c\
16A\
8.c\L
16A\Jk
=5
8G\L
[8G\J
4G\]
4r
=6||
*M2/4
2A\
=7
16c\LL
16c\J
8A\J
16c\LL
16c\J
8A\J
=8||
*M3/4
8G\L
8G\J
8.G\L
16G\Jk
16G\LL
16G\J
8G\J
=9||
*M2/4
16c\LL
16c\J
8A\J
8G\
8r
=10||
*M3/4
2A\
8.c\L
16A\Jk
=11||
*M2/4
2G\
=12
2G\
==
*-
